X: 2086
T: Çayda Çıra
C: (Anonim)
O: Turkey
F: http://compmusic.upf.edu/node/140
N: segah--turku--curcuna--cayda_cira--elazig
N: makam= segah
N: form= turku
N: usul= curcuna = 10/8
M: 10/8
L: 1/16
K: C _1/4B _1/4e ^f 
Q: 1/4=240
%%MIDI tuningsystem comma53
z4 G2d2 z2d2 z2d6  | e4 d2e2 d2{e}d8-d2  | \
w:   |   | 
c2d2 e4 d2e2 {g}f2e4d2  | 
w:   | 
d4 c2c4B8-B2  | B2c2 d2c2 d2c2 d2B4c2  | \
w:   |   | 
A4 G2c2 d2B4{c}B4z2  | 
w:   | 
B2c2 d2d4c2 d2B4A2  | A4 G2c2 d2B2 c2B6  | \
w:   |   | 
B4 G2d4d4d6  | e4 d2e2 d2d4d6  | 
w:  *  Çay da  çı ra   |  ya nı *  *  yor    | 
c2d2 e4 d2g2 f2e4d2  | d4 c2c4B8-B2  | \
w:  Na *  nay  *  ha *  nım   |  *  *  na nay    | 
d4 c2e4c2 d2B2 c2A2  | 
w:  Na nay  *  ca *  nım   | 
A4 G2c2 d2B4{c}B4z2  | .d4 c2e2 z2c2 d2B2 c2A2  | \
w:  *  *  na *  nay    |  Na nay  *  gü *  lüm   | 
A4 G2c2 d2B4{c}B6  | 
w:  *  *  na *  nay    | 
B4 G2d4d4d6  | e4 d2e2 d2d4d6  | c2d2 e4 d2g2 f2e4d2  | \
w:  *  Ay da  yıl da   |  ya nı *  *  yor    |  Na *  nay  *  ha *  nım   | 
d4 c2c4B8-B2  | 
w:  *  *  na nay    | 
d4 c2e4c2 d2B2 c2A2  | A4 G2c2 d2B4{c}B4z2  | \
w:  Na nay *  ca *  nım   |  *  *  na *  nay    | 
.d4 c2e2 z2c2 d2B2 c2A2  | 
w:  Na nay  *  gü *  lüm   | 
A4 G2c2 d2B4{c}B6  | z4 G2d2 z2d2 z2d6  | \
w:  *  *  na *  nay    |   | 
e4 d2e2 d2{e}d8-d2  | c2d2 e4 d2e2 {g}f2e4d2  | 
w:   |   | 
d4 c2c4B8-B2  | B2c2 d2c2 d2c2 d2B4c2  | \
w:   |   | 
A4 G2c2 d2B4{c}B4z2  | 
w:   | 
B2c2 d2d4c2 d2B4A2  | A4 G2c2 d2B2 c2B6  | \
w:   |   | 
B4 G2d4d4d6  | e4 d2e2 d2d4d6  | 
w:  *  Çay da  çı ra   |  ya nı *  *  yor    | 
c2d2 e4 d2g2 f2e4d2  | d4 c2c4B8-B2  | \
w:  Na *  nay  *  ha *  nım   |  *  *  na nay    | 
d4 c2e4c2 d2B2 c2A2  | 
w:  Na nay  *  ca *  nım   | 
A4 G2c2 d2B4{c}B4z2  | .d4 c2e2 z2c2 d2B2 c2A2  | \
w:  *  *  na *  nay    |  Na nay  *  gü *  lüm   | 
A4 G2c2 d2B4{c}B6  | 
w:  *  *  na *  nay    | 
B4 G2d4d4d6  | e4 d2e2 d2d4d6  | c2d2 e4 d2g2 f2e4d2  | \
w:  *  Ay da  yıl da   |  ya nı *  *  yor    |  Na *  nay  *  ha *  nım   | 
d4 c2c4B8-B2  | 
w:  *  *  na nay    | 
d4 c2e4c2 d2B2 c2A2  | A4 G2c2 d2B4{c}B4z2  | \
w:  Na nay *  ca *  nım   |  *  *  na *  nay    | 
.d4 c2e2 z2c2 d2B2 c2A2  | 
w:  Na nay  *  gü *  lüm   | 
A4 G2c2 d2B4{c}B6  | |


